svgs/regular/arrow-down-to-arc.svg

<svg xmlns="http://www.w3.org/2000/svg" viewBox="0 0 512 512"><!--! Font Awesome Pro 6.4.2 by @fontawesome - https://fontawesome.com License - https://fontawesome.com/license (Commercial License) Copyright 2023 Fonticons, Inc. --><path d="M256 464c114.9 0 208-93.1 208-208c0-13.3 10.7-24 24-24s24 10.7 24 24c0 141.4-114.6 256-256 256S0 397.4 0 256c0-13.3 10.7-24 24-24s24 10.7 24 24c0 114.9 93.1 208 208 208zM377.6 232.3l-104 112c-4.5 4.9-10.9 7.7-17.6 7.7s-13-2.8-17.6-7.7l-104-112c-9-9.7-8.5-24.9 1.3-33.9s24.9-8.5 33.9 1.3L232 266.9 232 24c0-13.3 10.7-24 24-24s24 10.7 24 24l0 242.9 62.4-67.2c9-9.7 24.2-10.3 33.9-1.3s10.3 24.2 1.3 33.9z"/></svg>

<svg xmlns="http://www.w3.org/2000/svg" viewBox="0 0 512 512"><!--! Font Awesome Pro 6.1.1 by @fontawesome - https://fontawesome.com License - https://fontawesome.com/license (Commercial License) Copyright 2022 Fonticons, Inc. --><path d="M256 464C370.9 464 464 370.9 464 255.1C464 242.7 474.7 231.1 488 231.1C501.3 231.1 512 242.7 512 255.1C512 397.4 397.4 512 256 512C114.6 512 0 397.4 0 255.1C0 242.7 10.75 231.1 24 231.1C37.25 231.1 48 242.7 48 255.1C48 370.9 141.1 464 256 464zM273.6 344.3C269 349.2 262.7 352 256 352C249.3 352 242.1 349.2 238.4 344.3L134.4 232.3C125.4 222.6 125.1 207.4 135.7 198.4C145.4 189.4 160.6 189.1 169.6 199.7L232 266.9V24C232 10.75 242.7 0 256 0C269.3 0 280 10.75 280 24V266.9L342.4 199.7C351.4 189.1 366.6 189.4 376.3 198.4C386 207.4 386.6 222.6 377.6 232.3L273.6 344.3z"/></svg>
